images/parking-3.2.svg

<?xml version="1.0" standalone="no"?>
<!DOCTYPE svg PUBLIC "-//W3C//DTD SVG 1.1//EN" "http://www.w3.org/Graphics/SVG/1.1/DTD/svg11.dtd">
<svg width="100%" height="100%" viewBox="0 0 3678 2305" version="1.1" xmlns="http://www.w3.org/2000/svg" xmlns:xlink="http://www.w3.org/1999/xlink" xml:space="preserve" style="fill-rule:evenodd;clip-rule:evenodd;stroke-linejoin:round;stroke-miterlimit:1;">
    <g transform="matrix(1,0,0,1,-15477,-110)">
        <g id="parking-3.2" transform="matrix(2.87248,0,0,2.25,15477.4,110.149)">
            <g transform="matrix(2.08676,0,0,5.15206,-116.151,-2349.03)">
                <g transform="matrix(0.516355,0,0,0.342776,217.275,407.725)">
                    <rect x="676.756" y="269.252" width="4.487" height="305.495" style="fill:black;"/>
                </g>
                <g transform="matrix(0.516355,0,0,0.342776,167.974,407.725)">
                    <rect x="676.756" y="269.252" width="4.487" height="305.495" style="fill:black;"/>
                </g>
                <g transform="matrix(-2.3627e-16,-0.975331,1.46923,-1.56845e-16,-273.988,1214.63)">
                    <rect x="678.386" y="270.211" width="1.228" height="303.577" style="fill:black;"/>
                </g>
                <g transform="matrix(0.516355,0,0,0.342776,118.674,407.725)">
                    <rect x="676.757" y="269.252" width="4.487" height="305.495" style="fill:black;"/>
                </g>
                <g transform="matrix(0.516355,0,0,0.342776,69.3729,407.725)">
                    <rect x="676.756" y="269.252" width="4.487" height="305.495" style="fill:black;"/>
                </g>
                <g transform="matrix(0.516355,0,0,0.342776,20.0721,407.725)">
                    <rect x="676.756" y="269.252" width="4.487" height="305.495" style="fill:black;"/>
                </g>
                <g transform="matrix(0.516355,0,0,0.342776,-29.2287,407.725)">
                    <rect x="676.756" y="269.252" width="4.487" height="305.495" style="fill:black;"/>
                </g>
                <g transform="matrix(0.516355,0,0,0.342776,-78.5295,407.725)">
                    <rect x="676.756" y="269.252" width="4.487" height="305.495" style="fill:black;"/>
                </g>
                <g transform="matrix(0.516355,0,0,0.342776,-127.83,407.725)">
                    <rect x="676.757" y="269.252" width="4.487" height="305.495" style="fill:black;"/>
                </g>
                <g transform="matrix(0.516355,0,0,0.342776,-177.131,407.725)">
                    <rect x="676.756" y="269.252" width="4.487" height="305.495" style="fill:black;"/>
                </g>
                <g transform="matrix(0.516355,0,0,0.342776,-226.432,407.725)">
                    <rect x="676.756" y="269.252" width="4.487" height="305.495" style="fill:black;"/>
                </g>
            </g>
            <g transform="matrix(0.126249,-3.77701e-17,-6.84244e-16,0.161177,221.713,-71.1325)">
                <path d="M1097.11,3478.42c0,-25.127 -20.4,-45.527 -45.527,-45.527l-91.055,0c-25.128,0 -45.528,20.4 -45.528,45.527l0,91.055c0,25.128 20.4,45.528 45.528,45.528l91.055,0c25.127,0 45.527,-20.4 45.527,-45.528l0,-91.055Z" style="fill:rgb(23,16,252);"/>
            </g>
            <g transform="matrix(0.126249,-3.77701e-17,-6.84244e-16,0.161177,427.471,-71.1325)">
                <path d="M1097.11,3478.42c0,-25.127 -20.4,-45.527 -45.527,-45.527l-91.055,0c-25.128,0 -45.528,20.4 -45.528,45.527l0,91.055c0,25.128 20.4,45.528 45.528,45.528l91.055,0c25.127,0 45.527,-20.4 45.527,-45.528l0,-91.055Z" style="fill:rgb(23,16,252);"/>
            </g>
            <g transform="matrix(0.126249,-3.77701e-17,-6.84244e-16,0.161177,633.229,-71.1325)">
                <path d="M1097.11,3478.42c0,-25.127 -20.4,-45.527 -45.527,-45.527l-91.055,0c-25.128,0 -45.528,20.4 -45.528,45.527l0,91.055c0,25.128 20.4,45.528 45.528,45.528l91.055,0c25.127,0 45.527,-20.4 45.527,-45.528l0,-91.055Z" style="fill:rgb(23,16,252);"/>
            </g>
            <g transform="matrix(0.126249,-3.77701e-17,-6.84244e-16,0.161177,838.974,-71.1325)">
                <path d="M1097.11,3478.42c0,-25.127 -20.4,-45.527 -45.527,-45.527l-91.055,0c-25.128,0 -45.528,20.4 -45.528,45.527l0,91.055c0,25.128 20.4,45.528 45.528,45.528l91.055,0c25.127,0 45.527,-20.4 45.527,-45.528l0,-91.055Z" style="fill:rgb(23,16,252);"/>
            </g>
            <g transform="matrix(0.126249,-3.77701e-17,-6.84244e-16,0.161177,17.746,-71.1325)">
                <path d="M1097.11,3478.42c0,-25.127 -20.4,-45.527 -45.527,-45.527l-91.055,0c-25.128,0 -45.528,20.4 -45.528,45.527l0,91.055c0,25.128 20.4,45.528 45.528,45.528l91.055,0c25.127,0 45.527,-20.4 45.527,-45.528l0,-91.055Z" style="fill:rgb(23,16,252);"/>
            </g>
            <g transform="matrix(0.348131,0,0,0.444444,-9617,5.06887)">
                <path d="M27805,1281c76.55,-4.324 130.335,1.837 233.675,-4c206.394,-11.658 292.187,-293.835 587.699,-298c229.601,-3.236 394.024,266.436 591.036,272c196.967,5.563 278.346,-263.985 591.036,-271c154.51,-3.467 418.374,249.613 591.891,257c153.762,6.546 319.882,-4.094 413.325,-0.116" style="fill:none;stroke-width:100px;stroke:rgb(20,169,12);stroke-opacity:0.698039;"/>
            </g>
        </g>
    </g>
</svg>

<?xml version="1.0" standalone="no"?>
<!DOCTYPE svg PUBLIC "-//W3C//DTD SVG 1.1//EN" "http://www.w3.org/Graphics/SVG/1.1/DTD/svg11.dtd">
<svg width="100%" height="100%" viewBox="0 0 3678 2305" version="1.1" xmlns="http://www.w3.org/2000/svg" xmlns:xlink="http://www.w3.org/1999/xlink" xml:space="preserve" style="fill-rule:evenodd;clip-rule:evenodd;stroke-linejoin:round;stroke-miterlimit:1;">
    <g transform="matrix(1,0,0,1,-15477,-110)">
        <g id="parking-3.2" transform="matrix(2.87248,0,0,2.25,15477.4,110.149)">
            <g transform="matrix(2.08676,0,0,5.15206,-116.151,-2349.03)">
                <g transform="matrix(0.516355,0,0,0.342776,217.275,407.725)">
                    <rect x="676.756" y="269.252" width="4.487" height="305.495" style="fill:black;"/>
                </g>
                <g transform="matrix(0.516355,0,0,0.342776,167.974,407.725)">
                    <rect x="676.756" y="269.252" width="4.487" height="305.495" style="fill:black;"/>
                </g>
                <g transform="matrix(-2.3627e-16,-0.975331,1.46923,-1.56845e-16,-273.988,1214.63)">
                    <rect x="678.386" y="270.211" width="1.228" height="303.577" style="fill:black;"/>
                </g>
                <g transform="matrix(0.516355,0,0,0.342776,118.674,407.725)">
                    <rect x="676.757" y="269.252" width="4.487" height="305.495" style="fill:black;"/>
                </g>
                <g transform="matrix(0.516355,0,0,0.342776,69.3729,407.725)">
                    <rect x="676.756" y="269.252" width="4.487" height="305.495" style="fill:black;"/>
                </g>
                <g transform="matrix(0.516355,0,0,0.342776,20.0721,407.725)">
                    <rect x="676.756" y="269.252" width="4.487" height="305.495" style="fill:black;"/>
                </g>
                <g transform="matrix(0.516355,0,0,0.342776,-29.2287,407.725)">
                    <rect x="676.756" y="269.252" width="4.487" height="305.495" style="fill:black;"/>
                </g>
                <g transform="matrix(0.516355,0,0,0.342776,-78.5295,407.725)">
                    <rect x="676.756" y="269.252" width="4.487" height="305.495" style="fill:black;"/>
                </g>
                <g transform="matrix(0.516355,0,0,0.342776,-127.83,407.725)">
                    <rect x="676.757" y="269.252" width="4.487" height="305.495" style="fill:black;"/>
                </g>
                <g transform="matrix(0.516355,0,0,0.342776,-177.131,407.725)">
                    <rect x="676.756" y="269.252" width="4.487" height="305.495" style="fill:black;"/>
                </g>
                <g transform="matrix(0.516355,0,0,0.342776,-226.432,407.725)">
                    <rect x="676.756" y="269.252" width="4.487" height="305.495" style="fill:black;"/>
                </g>
            </g>
            <g transform="matrix(0.126249,-3.77701e-17,-6.84244e-16,0.161177,221.713,-71.1325)">
                <path d="M1097.11,3478.42C1097.11,3453.29 1076.71,3432.89 1051.58,3432.89L960.528,3432.89C935.4,3432.89 915,3453.29 915,3478.42L915,3569.47C915,3594.6 935.4,3615 960.528,3615L1051.58,3615C1076.71,3615 1097.11,3594.6 1097.11,3569.47L1097.11,3478.42Z" style="fill:rgb(23,16,252);"/>
            </g>
            <g transform="matrix(0.126249,-3.77701e-17,-6.84244e-16,0.161177,427.471,-71.1325)">
                <path d="M1097.11,3478.42C1097.11,3453.29 1076.71,3432.89 1051.58,3432.89L960.528,3432.89C935.4,3432.89 915,3453.29 915,3478.42L915,3569.47C915,3594.6 935.4,3615 960.528,3615L1051.58,3615C1076.71,3615 1097.11,3594.6 1097.11,3569.47L1097.11,3478.42Z" style="fill:rgb(23,16,252);"/>
            </g>
            <g transform="matrix(0.126249,-3.77701e-17,-6.84244e-16,0.161177,633.229,-71.1325)">
                <path d="M1097.11,3478.42C1097.11,3453.29 1076.71,3432.89 1051.58,3432.89L960.528,3432.89C935.4,3432.89 915,3453.29 915,3478.42L915,3569.47C915,3594.6 935.4,3615 960.528,3615L1051.58,3615C1076.71,3615 1097.11,3594.6 1097.11,3569.47L1097.11,3478.42Z" style="fill:rgb(23,16,252);"/>
            </g>
            <g transform="matrix(0.126249,-3.77701e-17,-6.84244e-16,0.161177,838.974,-71.1325)">
                <path d="M1097.11,3478.42C1097.11,3453.29 1076.71,3432.89 1051.58,3432.89L960.528,3432.89C935.4,3432.89 915,3453.29 915,3478.42L915,3569.47C915,3594.6 935.4,3615 960.528,3615L1051.58,3615C1076.71,3615 1097.11,3594.6 1097.11,3569.47L1097.11,3478.42Z" style="fill:rgb(23,16,252);"/>
            </g>
            <g transform="matrix(0.126249,-3.77701e-17,-6.84244e-16,0.161177,17.746,-71.1325)">
                <path d="M1097.11,3478.42C1097.11,3453.29 1076.71,3432.89 1051.58,3432.89L960.528,3432.89C935.4,3432.89 915,3453.29 915,3478.42L915,3569.47C915,3594.6 935.4,3615 960.528,3615L1051.58,3615C1076.71,3615 1097.11,3594.6 1097.11,3569.47L1097.11,3478.42Z" style="fill:rgb(23,16,252);"/>
            </g>
            <g transform="matrix(0.348131,0,0,0.444444,-9617,5.06887)">
                <path d="M27805,1281C27881.5,1276.68 27935.3,1282.84 28038.7,1277C28245.1,1265.34 28330.9,983.165 28626.4,979C28856,975.764 29020.4,1245.44 29217.4,1251C29414.4,1256.56 29495.8,987.015 29808.4,980C29963,976.533 30226.8,1229.61 30400.3,1237C30554.1,1243.55 30720.2,1232.91 30813.7,1236.88" style="fill:none;stroke-width:100px;stroke:rgb(20,169,12);stroke-opacity:0.698039;"/>
            </g>
        </g>
    </g>
</svg>
